projects/svn/images/icons/wh.svg

<svg width="25" height="28" viewBox="0 0 25 28" fill="none" xmlns="http://www.w3.org/2000/svg">
<g clip-path="url(#clip0_1819_16320)">
<path d="M1.56063 18.3475L1.52087 18.2779C0.526838 16.439 0 14.4161 0 12.4231V12.4181C0.00497017 9.11292 1.31213 6.00159 3.67793 3.65566C6.04373 1.30974 9.17991 0.0224609 12.5 0.0224609C15.83 0.0224609 18.9562 1.31471 21.3071 3.65566C23.6928 6.03141 25.0049 9.14274 25 12.428C25 15.7332 23.6928 18.8445 21.3171 21.1905C18.9513 23.5314 15.8201 24.8237 12.5 24.8237H12.495C10.5517 24.8237 8.60834 24.3614 6.87872 23.4867L6.80914 23.4519L0.0994035 24.9777L1.56063 18.3475ZM7.29125 21.941C8.87673 22.8008 10.6759 23.258 12.495 23.258C18.5288 23.258 23.4344 18.3972 23.4344 12.428C23.4344 9.56521 22.2863 6.84652 20.1988 4.76401C18.1411 2.7163 15.4075 1.58807 12.495 1.58807C6.47117 1.58807 1.56063 6.4489 1.56063 12.4231C1.56063 14.267 2.07753 16.1408 3.06163 17.8356L3.2157 18.099L2.15706 22.9101L7.0328 21.8018L7.29125 21.941Z" fill="white"/>
<path d="M15.7404 17.5724C15.3577 17.5724 14.6519 17.4929 12.9223 16.8119C11.1976 16.136 9.49287 14.64 8.11613 12.6072C8.08134 12.5575 8.06146 12.5227 8.04655 12.5078L8.04158 12.5028C7.69864 12.0455 6.89844 10.8527 6.89844 9.63501C6.89844 8.38253 7.50977 7.7364 7.80301 7.42328C7.82289 7.39843 7.84277 7.37855 7.86265 7.35867C8.11116 7.08531 8.39943 7.06543 8.48392 7.06543H9.03561C9.19963 7.0704 9.32885 7.08034 9.49287 7.42328L9.50281 7.44813C9.65191 7.77617 9.90042 8.39247 10.0992 8.88949C10.2732 9.31692 10.3626 9.54058 10.3974 9.61016C10.4621 9.74436 10.472 9.82885 10.4223 9.92825C10.4024 9.96801 10.3825 10.0078 10.3676 10.0426C10.308 10.1718 10.2632 10.2563 10.1688 10.3706C10.0346 10.5296 9.8706 10.6937 9.72647 10.8328C9.58233 10.977 9.30897 11.2454 9.56742 11.6827C9.78611 12.0605 10.3925 13.0147 11.2424 13.7702C12.2016 14.6201 13.0366 14.9879 13.4392 15.1668C13.5137 15.2016 13.5734 15.2265 13.6131 15.2463C13.7722 15.3259 13.9014 15.3607 14.0257 15.3607C14.2046 15.3607 14.3587 15.2811 14.4978 15.1221C14.637 14.963 15.2384 14.2622 15.4471 13.9491C15.5316 13.8249 15.5813 13.8249 15.6161 13.8249C15.6807 13.8249 15.7702 13.8547 15.8547 13.8845C15.964 13.9243 16.3865 14.1181 17.7632 14.804L17.8129 14.8288C17.8726 14.8587 17.9273 14.8835 17.977 14.9084C18.1111 14.973 18.2503 15.0376 18.2801 15.0823C18.3149 15.1917 18.31 15.6837 18.0962 16.2851C18.0068 16.5436 17.7185 16.8418 17.306 17.1052C16.9531 17.3338 16.5455 17.5028 16.3119 17.5277C16.2573 17.5326 16.2076 17.5376 16.1529 17.5426C16.0286 17.5575 15.8994 17.5724 15.7404 17.5724Z" fill="white"/>
</g>
<defs>
<clipPath id="clip0_1819_16320">
<rect width="25" height="24.9553" fill="white" transform="translate(0 0.0224609)"/>
</clipPath>
</defs>
</svg>

<svg width="25" height="28" fill="none" xmlns="http://www.w3.org/2000/svg"><g clip-path="url(#clip0_1819_16320)" fill="#fff"><path d="M1.56 18.348l-.04-.07C.528 16.439 0 14.416 0 12.423v-.005c.005-3.305 1.312-6.416 3.678-8.762A12.456 12.456 0 0112.5.022a12.4 12.4 0 018.807 3.634C23.693 6.03 25.005 9.143 25 12.428c0 3.305-1.307 6.416-3.683 8.762a12.466 12.466 0 01-8.817 3.634h-.005c-1.943 0-3.887-.463-5.616-1.337l-.07-.035L.1 24.978l1.462-6.63zm5.731 3.593a10.948 10.948 0 005.204 1.317c6.034 0 10.94-4.86 10.94-10.83 0-2.863-1.149-5.581-3.236-7.664a10.847 10.847 0 00-7.704-3.176c-6.024 0-10.934 4.86-10.934 10.835 0 1.844.517 3.718 1.5 5.413l.155.263-1.059 4.811 4.876-1.108.258.139z"/><path d="M15.74 17.572c-.382 0-1.088-.08-2.818-.76-1.724-.676-3.43-2.172-4.806-4.205-.035-.05-.055-.084-.07-.1l-.004-.004c-.343-.457-1.144-1.65-1.144-2.868 0-1.252.612-1.899.905-2.212a.764.764 0 01.06-.064.853.853 0 01.62-.294h.553c.164.005.293.015.457.358l.01.025c.149.328.397.944.596 1.441.174.428.264.652.298.721.065.134.075.219.025.318-.02.04-.04.08-.054.115a1.33 1.33 0 01-.2.328 6.52 6.52 0 01-.442.462c-.144.144-.417.412-.159.85.22.377.825 1.332 1.675 2.087.96.85 1.795 1.218 2.197 1.397.075.035.134.06.174.08a.92.92 0 00.413.114c.179 0 .333-.08.472-.239.139-.159.74-.86.95-1.173.084-.124.133-.124.168-.124.065 0 .154.03.239.06.109.04.532.233 1.908.919l.05.025c.06.03.114.054.164.08.134.064.273.129.303.173.035.11.03.602-.184 1.203-.09.259-.378.557-.79.82-.353.229-.76.398-.994.423l-.16.015c-.123.015-.253.03-.412.03z"/></g><defs><clipPath id="clip0_1819_16320"><path fill="#fff" transform="translate(0 .022)" d="M0 0h25v24.955H0z"/></clipPath></defs></svg>
